X:1
T:Blessèd Cross of Jesus
T:Blessèd Cross of Jesus
T:Hubert Platt Main
T:Frances Jane (Fanny) Crosby, 1877
T:Public Domain Courtesy of the Cyber Hymnal™
C:Hubert Platt Main
Z:Public Domain
Z:Courtesy of the Cyber Hymnal™
%%score ( 1 2 ) ( 3 4 )
L:1/8
Q:1/4=100
M:6/8
K:Ab
V:1 treble 
V:2 treble 
V:3 bass 
V:4 bass 
V:1
 [Ec]2 [CB] (BA)[DF] | [CE]2 [CA] [CA]3 | [DG]2 [DG] [CA]2 [Ec] | [Ec]3 [EB]3 | %4
w: 1.~Wand- ’rer, come, * there’s|room for thee,|At the cross of|Je- sus;|
w: 2.~Come and bring * thy|bur- den now|To the cross of|Je- sus;|
w: 3.~O what com- * fort|thou wilt find|At the cross of|Je- sus;|
w: 4.~See the crim- * son|wa- ters flow|At the cross of|Je- sus;|
 [Ec]2 [CB] (BA)[DF] | [CE]2 [CA] [CA]3 | [DB]2 [CA] [Ec]2 [DB] | [DB]3 [CA]3 || %8
w: Come and taste * sal-|va- tion free|At the cross of|Je- sus.|
w: Lay thy burn- * ing,|throb- bing brow|At the cross of|Je- sus.|
w: Love thy brok- * en|heart will bind|At the cross of|Je- sus.|
w: Come and tell * thy|ev- ery woe|At the cross of|Je- sus.|
"^Refrain" [B,G]2 [CA] [EB]3 | [CA]2 [DB] [Ec]3 | [EB]2 [Ec] ([Ae][Ed])[Ec] | [Ec]3 [EB]3 | %12
w: ||||
w: Bless- èd cross!|pre- cious cross!|There my hopes * are|twin- ing;|
w: ||||
w: ||||
 [Ec]2 [CB] (BA)[DF] | [CE]2 [CA] [CA]3 | [DB]2 [CA] [Ec]2 [DB] | [DB]3 [CA]4 |] %16
w: ||||
w: There I see * a|Fa- ther’s love|Through a Sav- ior|shin- ing.|
w: ||||
w: ||||
V:2
 x3 D2 x | x6 | x6 | x6 | x3 D2 x | x6 | x6 | x6 || x6 | x6 | x6 | x6 | x3 D2 x | x6 | x6 | x7 |] %16
V:3
 [A,,A,]2 [A,,E,] [A,,F,]2 [A,,A,] | [A,,A,]2 [A,,E,] [A,,E,]3 | %2
 [B,,E,]2 [B,,E,] [A,,E,]2 [A,,A,] | [E,A,]3 [E,G,]3 | [A,,A,]2 [A,,E,] [A,,F,]2 [A,,A,] | %5
 [A,,A,]2 [A,,E,] [A,,E,]3 | [E,G,]2 [E,A,] [E,A,]2 [E,G,] | [E,G,]3 [A,,A,]3 || E,2 E, [E,G,]3 | %9
 A,2 A, A,3 | [E,G,]2 [E,A,] (CB,)[E,A,] | [E,A,]3 [E,G,]3 | [A,,A,]2 [A,,E,] [A,,F,]2 [A,,A,] | %13
 [A,,A,]2 [A,,E,] [A,,E,]3 | [E,G,]2 [E,A,] [E,A,]2 [E,G,] | [E,G,]3 [A,,A,]4 |] %16
V:4
 x6 | x6 | x6 | x6 | x6 | x6 | x6 | x6 || x6 | x6 | x3 E,2 x | x6 | x6 | x6 | x6 | x7 |] %16

